!!!OTL: AHNDUNGSGRAUEND TODESMUTHIG BRICHT DER GROSSE MORGEN AN
!!!ARE: Europa, Mitteleuropa, Deutschland
!!!SCT: B0064
!!!YEM: Copyright 1995, estate of Helmut Schaffrath.
**kern
*ICvox
*Ivox
!! Mixed meters:  4/4; 3/4
*M3/4
*k[b-e-a-]
*E-:
{8b-
8g
=1
4e-
4g
4b-
4ee-
=2
8dd
8cc
4cc
4r}
=3
{8a-
8g
=4
*M4/4
4.f
8f
4.b-
8a-
=5
*M3/4
2g
4r}
=6
{8b-
8g
=7
*M4/4
4e-
4g
4b-
4ee-
=8
*M3/4
8dd
8cc
4cc
4r}
=9
{8a-
8g
=10
*M4/4
4.f
8f
4.b-
8a-
=11
*M3/4
2g
4r}
=12
{8f
8an
=13
*M4/4
4b-
4b-
4cc
4cc
=14
*M3/4
8dd
8cc
4b-
4r}
=15
{8cc
8dd
=16
*M4/4
4ee-
4dd
4cc
4dd
=17
*M3/4
2b-
4r}
=18
{8b-
8b-
=19
*M4/4
4.ee-
8b-
8a-
8g
8f
8e-
=20
*M3/4
4cc
4cc
4r}
=21
{8ee-
8cc
=22
*M4/4
4.b-
8g
4b-
8a-
8f
=23
*M3/4
2e-
4r}
=24
{4g
4g
4g
=25
4.b-
8a-
4g}
=26
{4.f
8e-
4f
=27
2g
4e-}
=28
{4g
4g
4g
=29
4.b-
8a-
4g}
=30
{4.f
8e-
4f
=31
2g
4e-}
=32
{4b-
4g
4b-
=33
4ee-
4b-
4g}
=34
{4b-
4a-
4f
=35
2e-
4r}
=36
{4ee-
4ee-
4ee-
=37
4ff
4ff
4ff}
=38
{4.dd
8cc
4dd
=39
2ee-
4r}
==
!!!AGN: Kriegs -, Sieges -, Soldaten - Lied
!!!ONB: ESAC (Essen Associative Code) Database: BOEHME
!!!AMT: irregular
!!!AIN: vox
!!!EED: Helmut Schaffrath
!!!EEV: 1.0
*-
